X: 7
T:slow lith'n tune
M:2/2
L:1/8
S:klaipeda
K:C
CD| E4 E4| EFEC D2 CB,| A,2 A,2 B,2 B,2 C4 :| c4 c4 | cdcA B4 | A2 A2 AB
cA| G2 F2 E2 CD| E4 E4| EFEC D2 CB,| A,2 A,2 B,2 B,2 C4|
